X:42
T:Grinders,The. WCa.42
T:Our Bride is No Maid,aka. WCa.42
M:9/8
L:1/8
Q:3/8=120
S:Wm. Calvert MS, 1812, Leyburn, Yorks.
R:.Slip jig
O:England
A:North Yorkshire
Z:vmp.Chris Partington, May 2003
K:G
“_Key D in MS”gfg edc BAG|gfg efg agf|\
gfg edc BAG|AAAA2Bd2B:|!
|:AAAA2BG2E|AAAA2Bd2B|\
AAAA2BG2E|dBG GBcd2B:|

